usr/share/icons/biglinux-icons-material/16/actions/plugins.svg

<svg xmlns="http://www.w3.org/2000/svg" viewBox="0 0 16 16">
  <defs id="defs3051">
    <style type="text/css" id="current-color-scheme">
      .ColorScheme-Text {
        color:#363636;
      }
      </style>
  </defs>
 <path 
     style="fill:currentColor;fill-opacity:1;stroke:none" 
     d="m4 3v1h-2v9h12v-9h-2v-1h-3v1h-2v-1zm-1 2h10v7h-10z"
     class="ColorScheme-Text"/>
</svg>

<svg xmlns="http://www.w3.org/2000/svg" viewBox="0 0 16 16"><path d="M4 3v1H2v9h12V4h-2V3H9v1H7V3zM3 5h10v7H3z" style="fill:currentColor;fill-opacity:1;stroke:none;color:#dedede"/></svg>
